svg/m/AZ.svg

<svg width="20" height="15" viewBox="0 0 20 15" fill="none" xmlns="http://www.w3.org/2000/svg">
<mask id="mask0" mask-type="alpha" maskUnits="userSpaceOnUse" x="0" y="0" width="20" height="15">
<rect width="20" height="15" fill="white"/>
</mask>
<g mask="url(#mask0)">
<path fill-rule="evenodd" clip-rule="evenodd" d="M0 0V15H20V0H0Z" fill="#AF0100"/>
<mask id="mask1" mask-type="alpha" maskUnits="userSpaceOnUse" x="0" y="0" width="20" height="15">
<path fill-rule="evenodd" clip-rule="evenodd" d="M0 0V15H20V0H0Z" fill="white"/>
</mask>
<g mask="url(#mask1)">
<path fill-rule="evenodd" clip-rule="evenodd" d="M0 0V5H20V0H0Z" fill="#3CA5D9"/>
<path fill-rule="evenodd" clip-rule="evenodd" d="M0 10V15H20V10H0Z" fill="#73BE4A"/>
<path fill-rule="evenodd" clip-rule="evenodd" d="M10.7261 9.31666C9.88427 9.12255 9.22547 8.4607 9.23421 7.4895C9.24239 6.58037 9.82882 5.81131 10.7547 5.60231C11.6807 5.39331 12.4952 5.83405 12.4952 5.83405C12.24 5.26661 11.3516 4.8687 10.6229 4.87061C9.26647 4.87417 7.81938 5.90969 7.80516 7.49099C7.79041 9.1304 9.35067 10.0624 10.7238 10.0588C11.8247 10.0559 12.3476 9.34744 12.4561 9.04617C12.4561 9.04617 11.568 9.51077 10.7261 9.31666ZM11.2611 8.38794L11.9959 7.87666L12.7306 8.38794L12.4714 7.53117L13.1847 6.99039L12.2898 6.97216L11.9959 6.12666L11.702 6.97216L10.807 6.99039L11.5203 7.53117L11.2611 8.38794Z" fill="#F7FCFF"/>
</g>
</g>
</svg>

<svg width="20" height="15" fill="none" xmlns="http://www.w3.org/2000/svg">
  <mask id="a" maskUnits="userSpaceOnUse" x="0" y="0" width="20" height="15">
    <path fill="#fff" d="M0 0h20v15H0z"/>
  </mask>
  <g mask="url(#a)">
    <path fill-rule="evenodd" clip-rule="evenodd" d="M0 0v15h20V0H0z" fill="#AF0100"/>
    <mask id="b" maskUnits="userSpaceOnUse" x="0" y="0" width="20" height="15">
      <path fill-rule="evenodd" clip-rule="evenodd" d="M0 0v15h20V0H0z" fill="#fff"/>
    </mask>
    <g mask="url(#b)" fill-rule="evenodd" clip-rule="evenodd">
      <path d="M0 0v5h20V0H0z" fill="#3CA5D9"/>
      <path d="M0 10v5h20v-5H0z" fill="#73BE4A"/>
      <path d="M10.726 9.317c-.842-.194-1.5-.856-1.492-1.828.008-.909.595-1.678 1.52-1.887.927-.209 1.741.232 1.741.232-.255-.567-1.143-.965-1.872-.963-1.357.003-2.804 1.039-2.818 2.62-.015 1.64 1.546 2.571 2.919 2.568 1.1-.003 1.624-.712 1.732-1.013 0 0-.888.465-1.73.27zm.535-.93l.735-.51.735.51-.26-.856.714-.54-.895-.019-.294-.845-.294.845-.895.018.713.541-.259.857z" fill="#F7FCFF"/>
    </g>
  </g>
</svg>
